X:1
T:Winterreise, D.911
T:Einsamkeit
T:(Spätere Fassung)
T:Winterreise, D.911
T:12. Einsamkeit
T:Franz Schubert
T:Wilhelm Müller
T:OpenScore (CC0)
T:OpenScore (CC0)
T:OpenScore (CC0)
C:Franz Schubert
Z:Wilhelm Müller
Z:OpenScore (CC0)
%%score 1 { ( 2 4 ) | 3 }
L:1/8
Q:1/4=40
M:2/4
K:D
V:1 treble nm="Singstimme\nVoice"
V:2 treble nm="Pianoforte"
V:4 treble 
V:3 bass 
V:1
"^Langsam" z4 | z4 | z4 | z4 | z4 | z2[Q:1/4=33] z F | F3/2 G/ F/G/ F/B/ | c2 B B | %8
w: |||||Wie|ei\- ne trü \- be *|Wol\- ke durch|
 B/F/ F F/G/ E/C/ | F2 z F | F3/2 G/ F/G/ F/B/ | c2 B B | B/F/ F F/G/ E/C/ | F2[Q:1/4=40] z F | %14
w: heit' \- re Lüf \- fte *|geht, wenn|in der Tan \- nen *|Wip\- fel ein|mat \- tes Lüft \- chen *|weht: so|
 F3/2 G/ F/^A/ c/e/ | d>c B ^A/B/ | G F/G/ E ^E | F2 z F/G/ | F3/2 C/ F/^A/ c/e/ | %19
w: zieh' ich mei \- ne *|Stra \- sse da \-|hin mit * trä\- gem|Fuss, durch *|hell\- les, fro \- hes *|
 d3/2 c/ B ^A/B/ | G F/G/ E ^E | F2 z2 | z2[Q:1/4=33] z ^A | B3/2 B/ B !>!c/ B/ |{B} =A A z c | %25
w: Le \- ben ein \-|sam und * oh\- ne|Gruss.|Ach,|dass die Luft so _|ru- hig! ach,|
 B3/2 B/ B !>!c/B/ |{B} A2 z2 | z2 z[Q:1/4=40] ^A | B d _e3/2 e/ | d B z2 | z2 z B | =c3/2 G/ c B | %32
w: dass die Welt so *|licht!|Als|noch die Stür\- me|tob\- ten,|war|ich so e\- lend,|
 z z/ B/ d ^A | B2 z2 | z2 z D | A3/2 A/ A !>!B/A/ |{A} G G z B | B3/2 B/ B !>!^c/B/ |{B} A2 z2 | %39
w: so e\- lend|nicht.|Ach,|dass die Luft so _|ru- hig! ach,|dass die Welt so _|licht!|
 z2 z ^A | B d _e3/2 e/ | d B z2 | z2[Q:1/4=33] z B | =c3/2 G/ c B | z z/ d/ f ^A | B2 z2 | z4 | %47
w: Als|noch die Stür\- me|tob\- ten,|war|ich so e\- lend,|so e\- lend|nicht.||
 !fermata!z4 |] %48
w: |
V:2
!pp! z2 (.[DB].[DB]) | z2 (.[DF].[DF]) | z2 (!>![CE][B,D]/[^A,C]/) | [B,D] z (!>![Fd][Ec]/[DB]/) | %4
 [Ec] z ([CE][B,D]/[^A,C]/) | [B,D] z (.[DB].[DB]) | z2 (.[DB].[DB]) | z2 (.[DB].[DB]) | %8
 z [DB] z [CEB] | z [DB]- [DBd]2 | z2 (.[DB].[DB]) | z2 (.[DB].[DB]) | z [DB] z [CEB] | %13
 z [DB]- [DBd]2 | z2 !>![EFd][EFc] | z2 !>![D^EB][DFB] | z (GE^E) | z (F F,2) | z2 !>![EFd][EFc] | %19
 z2 !>![D^EB][DFB] | z (G E^E | F)(F,G,^A, |"_cresc." CEG[C^A]) | %23
"^trem"!f!!<(! !///-!D2!<)!!>(! B2!>)! |!p! [^C=A] z!>(! (=fe/)!>)! z/ | %25
!f!!<(! !///-!D2!<)!!>(! B2!>)! |!p! [CA] z!>(! (=f!>)!e/) z/ | %27
[K:bass]"_cresc." (3[C,E,]/[C,E,]/[C,E,]/!<(! (3[D,E,]/[D,E,]/[D,E,]/!<)!!>(! (3[C,E,A,]/[C,E,A,]/[C,E,A,]/ (3[C,E,^A,]/[C,E,A,]/[C,E,A,]/!>)! | %28
!<(! (3[B,,D,B,]/[B,,D,B,]/[B,,D,B,]/ (3[D,G,B,D]/[D,G,B,D]/[D,G,B,D]/!<)!!>(! (3[_E,G,=C_E]/[E,G,CE]/[E,G,CE]/ (3[A,CEF]/[A,CEF]/[A,CEF]/!>)! | %29
[K:treble] .[B,DG]!f!.[D=FBd] z[K:bass]!p! [=F,B,D] | (!>![=CE]D/C/) ([E,CE][=F,B,D]) | %31
 (!>![=CE]D/C/)!<(! ([E,CE][^E,B,D])!<)! | ([D^F]!>(![^CE]/[B,D]/)!>)! ([F,DF][E,F,C]) | %33
 [D,F,B,]"_cresc." (B,,D,^E, | F,G,B,D) |[K:treble]!f!!<(! !///-!=C2!<)!!>(! A2!>)! | %36
!p! [B,G] z!>(! (_ed/)!>)! z/ |!f!!<(! !///-!D2!<)!!>(! B2!>)! | [^CA] z (=fe/) z/ | %39
[K:bass]"_cresc." (3[C,E,]/[C,E,]/[C,E,]/ (3[D,E,]/[D,E,]/[D,E,]/ (3[C,E,A,]/[C,E,A,]/[C,E,A,]/ (3[C,E,^A,]/[C,E,A,]/[C,E,A,]/ | %40
!<(! (3[B,,D,B,]/[B,,D,B,]/[B,,D,B,]/ (3[D,G,B,D]/[D,G,B,D]/[D,G,B,D]/!<)!!>(! (3[_E,G,=C_E]/[E,G,CE]/[E,G,CE]/ (3[A,CEF]/[A,CEF]/[A,CEF]/!>)! | %41
[K:treble] .[B,DG]!f!.[D=FBd] z[K:bass]!p! [=F,B,D] | (!>![=CE]D/C/) ([E,CE][=F,B,D]) | %43
 (!>![=CE]D/C/)!<(! ([E,CE][^E,B,D])!<)! | ([D^F]!>(![^CE]/[B,D]/)!>)! ([F,DF][E,F,C]) | %45
!pp! [D,F,B,] z [D,B,][D,B,] |"_dim." z2 [D,B,][D,B,] | !fermata![D,B,]4 |] %48
V:3
 (.[B,,F,].[B,,F,]) z2 | (.[B,,F,].[B,,F,]) z2 | (.[B,,G,].[B,,G,]) z2 | (.[B,,F,].[B,,F,]) z2 | %4
 (.[B,,G,].[B,,G,]) z2 | (.[B,,F,].[B,,F,]) z2 | (.[B,,F,].[B,,F,]) z2 | (.[B,,F,].[B,,F,]) z2 | %8
 [B,,F,] z [B,,G,] z | [B,,F,]4 | (.[B,,F,].[B,,F,]) z2 | (.[B,,F,].[B,,F,]) z2 | %12
 [B,,F,] z [B,,G,] z | [B,,F,]4 | !>![^A,,C,][A,,F,] z2 | !>![B,,G,][B,,F,] z2 | (G,2 E,^E,) | %17
 (F,2 F,,2) | !>![^A,,C,][A,,F,] z2 | !>![B,,G,][B,,F,] z2 | (G,2 E,^E, | F,)(F,,G,,^A,, | %22
 C,E,G,[G,,C,]) | !///-!^G,,2 =F,2 | [A,,E,] z (!>!=FE/) z/ |"^trem" !///-!^G,,2 =F,2 | %26
 [A,,E,] z (=FE/) z/ | (3A,,/A,,/A,,/ (3^G,,/G,,/G,,/ (3=G,,/G,,/G,,/ (3F,,/F,,/F,,/ | %28
 (3[G,,,G,,]/[G,,,G,,]/[G,,,G,,]/ (3[G,,,G,,]/[G,,,G,,]/[G,,,G,,]/ (3[G,,,G,,]/[G,,,G,,]/[G,,,G,,]/ (3[G,,,G,,]/[G,,,G,,]/[G,,,G,,]/ | %29
 .[G,,,G,,].[G,,D,=F,] z [G,,,G,,] | [G,,,G,,]3 [G,,,G,,] | [G,,,G,,]3 [G,,,G,,] | %32
 [^F,,,^F,,]3 [F,,,F,,] | [B,,,F,,B,,] (B,,,D,,^E,, | F,,G,,B,,D,) | !///-!F,,2 _E,2 | %36
 [G,,D,] z (_ED/) z/ | !///-!^G,,2 =F,2 | [A,,E,] z (!>!=FE/) z/ | %39
 (3A,,/A,,/A,,/ (3^G,,/G,,/G,,/ (3=G,,/G,,/G,,/ (3F,,/F,,/F,,/ | %40
!f! (3[G,,,G,,]/[G,,,G,,]/[G,,,G,,]/ (3[G,,,G,,]/[G,,,G,,]/[G,,,G,,]/ (3[G,,,G,,]/[G,,,G,,]/[G,,,G,,]/ (3[G,,,G,,]/[G,,,G,,]/[G,,,G,,]/ | %41
 .[G,,,G,,].[G,,D,=F,] z [G,,,G,,] | [G,,,G,,]3 [G,,,G,,] | [G,,,G,,]3 [G,,,G,,] | %44
 [^F,,,^F,,]3 [F,,,F,,] | [B,,,F,,][B,,,F,,] z2 | [B,,,F,,][B,,,F,,] z2 | !fermata![B,,,F,,]4 |] %48
V:4
 x4 | x4 | x4 | x4 | x4 | x4 | x4 | x4 | x4 | x4 | x4 | x4 | x4 | x4 | x4 | x4 | x4 | x4 | x4 | %19
 x4 | x4 | x4 | x4 | x4 | x4 | x4 | x4 |[K:bass] x4 | x4 |[K:treble] x3[K:bass] x | E,2 x2 | %31
 E,2 x2 | ^F,2 x2 | x4 | x4 |[K:treble] x4 | x4 | x4 | x4 |[K:bass] x4 | x4 | %41
[K:treble] x3[K:bass] x | E,2 x2 | E,2 x2 | ^F,2 x2 | x4 | x4 | x4 |] %48

